icons/sad.svg

<svg width="48" height="48" viewBox="0 0 48 48" fill="none" xmlns="http://www.w3.org/2000/svg">
<path d="M14.8073 22.2328C14.1242 21.7953 13.6237 21.0878 13.7428 20.3501C13.7667 20.2024 13.8554 20.0731 13.9847 19.9978C14.114 19.9225 14.2702 19.909 14.4105 19.9611C16.2287 20.6361 18.2567 20.2174 20.0526 18.5126C20.1764 18.3951 20.3517 18.3488 20.5174 18.39C20.6831 18.4311 20.8163 18.554 20.8707 18.7158C21.1024 19.4046 20.8948 20.3341 20.3905 21.0975C19.8685 21.8877 18.983 22.579 17.737 22.7629C16.5386 22.9399 15.521 22.6899 14.8073 22.2328Z" fill="black"/>
<path d="M32.7542 22.2328C33.4373 21.7953 33.9377 21.0878 33.8187 20.3501C33.7948 20.2024 33.7061 20.0731 33.5768 19.9978C33.4475 19.9225 33.2913 19.909 33.151 19.9611C31.3327 20.6361 29.3048 20.2174 27.5089 18.5126C27.3851 18.3951 27.2098 18.3488 27.0441 18.39C26.8784 18.4311 26.7452 18.554 26.6907 18.7158C26.459 19.4046 26.6666 20.3341 27.171 21.0975C27.693 21.8877 28.5785 22.579 29.8244 22.7629C31.0229 22.9399 32.0404 22.6899 32.7542 22.2328Z" fill="black"/>
<path fill-rule="evenodd" clip-rule="evenodd" d="M33.2581 31C31.5382 27.4383 28.0381 25 24 25C19.9619 25 16.4618 27.4383 14.7419 31C14.273 31.9709 15.0582 33 16.1363 33L31.8637 33C32.9418 33 33.727 31.9709 33.2581 31ZM24 27C26.8697 27 29.4525 28.5553 30.9778 31L17.0222 31C18.5475 28.5553 21.1303 27 24 27Z" fill="black"/>
<path fill-rule="evenodd" clip-rule="evenodd" d="M42 24C42 33.9411 33.9411 42 24 42C14.0589 42 6 33.9411 6 24C6 14.0589 14.0589 6 24 6C33.9411 6 42 14.0589 42 24ZM40 24C40 32.8366 32.8366 40 24 40C15.1634 40 8 32.8366 8 24C8 15.1634 15.1634 8 24 8C32.8366 8 40 15.1634 40 24Z" fill="black"/>
</svg>

<svg
  xmlns="http://www.w3.org/2000/svg"
  width="24"
  height="24"
  viewBox="0 0 24 24"
  fill="none"
  stroke="currentColor"
  stroke-width="2"
  stroke-linecap="round"
  stroke-linejoin="round"
>
  <path d="M14.807 22.233c-.683-.438-1.183-1.145-1.064-1.883a.5.5 0 0 1 .668-.389c1.818.675 3.846.256 5.642-1.448a.5.5 0 0 1 .818.203c.231.689.024 1.618-.48 2.381a3.8 3.8 0 0 1-2.654 1.666c-1.198.177-2.216-.073-2.93-.53" />
  <path d="M32.754 22.233c.683-.438 1.184-1.145 1.065-1.883a.5.5 0 0 0-.668-.389c-1.818.675-3.846.256-5.642-1.448a.5.5 0 0 0-.818.203c-.232.689-.024 1.618.48 2.381a3.8 3.8 0 0 0 2.653 1.666c1.199.177 2.216-.073 2.93-.53" />
  <path
    fill-rule="evenodd"
    d="M33.258 31c-1.72-3.562-5.22-6-9.258-6s-7.538 2.438-9.258 6c-.469.97.316 2 1.394 2h15.728c1.078 0 1.863-1.03 1.394-2M24 27c2.87 0 5.453 1.555 6.978 4H17.022c1.526-2.445 4.108-4 6.978-4"
    clip-rule="evenodd"
  />
  <path
    fill-rule="evenodd"
    d="M42 24c0 9.941-8.059 18-18 18S6 33.941 6 24 14.059 6 24 6s18 8.059 18 18m-2 0c0 8.837-7.163 16-16 16S8 32.837 8 24 15.163 8 24 8s16 7.163 16 16"
    clip-rule="evenodd"
  />
</svg>
